svg/Outline/chevron-up.svg

<svg viewBox="0 0 24 24" xmlns="http://www.w3.org/2000/svg" width="24" height="24"><path d="M11.41 7.89q.59-.2 1.18 0l.2.08q.25.13.45.3l.53.5 4.97 4.97a.9.9 0 0 1-1.28 1.28l-4.96-4.97-.48-.45h-.04l-.05.04q-.13.11-.42.4l-4.97 4.98a.9.9 0 0 1-1.28-1.28l4.97-4.96q.29-.3.53-.5.25-.24.65-.4"/></svg>

<svg viewBox="0 0 24 24" xmlns="http://www.w3.org/2000/svg" width="24" height="24"><path d="M11.41 7.89Q12 7.69 12.59 7.89L12.79 7.97Q13.04 8.1 13.24 8.27L18.74 13.74A.9 .9 0 0 1 17.46 15.02L12.5 10.05L11.98 9.6L11.93 9.64Q11.8 9.75 11.51 10.04L6.54 15.02A.9 .9 0 0 1 5.26 13.74L10.23 8.78Q10.52 8.48 10.76 8.28Q11.01 8.04 11.41 7.88"/></svg>
